build/assets/img/svg/icon-site.svg

<svg width="48" height="48" viewBox="0 0 48 48" fill="none" xmlns="http://www.w3.org/2000/svg">
<path d="M21.7059 35.2942L21.9748 32.4707H27.0841L27.353 35.2942H21.7059Z" fill="#A62E41"/>
<path d="M9.70593 29.647H38.6471V32.4705H9.70593V29.647Z" fill="#A62E41"/>
<path fill-rule="evenodd" clip-rule="evenodd" d="M10.1884 12.822C9.98394 12.822 9.8182 12.9885 9.8182 13.1938V29.497H38.5347V13.1938C38.5347 12.9885 38.369 12.822 38.1646 12.822H10.1884ZM10.1884 12H38.1646C38.8209 12 39.3529 12.5345 39.3529 13.1938V31.9826C39.3529 32.642 38.8209 33.1765 38.1646 33.1765H15.3161C15.0901 33.1765 14.9069 32.9925 14.9069 32.7655C14.9069 32.5385 15.0901 32.3545 15.3161 32.3545H38.1646C38.369 32.3545 38.5347 32.188 38.5347 31.9826V30.319H9.8182V31.9826C9.8182 32.188 9.98394 32.3545 10.1884 32.3545H13.2486C13.4746 32.3545 13.6577 32.5385 13.6577 32.7655C13.6577 32.9925 13.4746 33.1765 13.2486 33.1765H10.1884C9.53206 33.1765 9 32.642 9 31.9826V13.1938C9 12.9245 9.08882 12.6759 9.23864 12.4761C9.31801 12.3703 9.41448 12.2782 9.52395 12.2039C9.71361 12.0752 9.94226 12 10.1884 12Z" fill="black"/>
<path fill-rule="evenodd" clip-rule="evenodd" d="M21.3057 32.4707H27.7531L27.8579 33.6799C27.8755 33.8839 27.7037 34.0621 27.4741 34.0778C27.2444 34.0935 27.0439 33.9408 27.0263 33.7367L26.9808 33.2119H22.078L21.9007 35.259H27.1581L27.1282 34.9141C27.1106 34.71 27.2824 34.5319 27.512 34.5162C27.7417 34.5005 27.9422 34.6532 27.9598 34.8572L28.0588 36.0001H21L21.3057 32.4707Z" fill="black"/>
<path fill-rule="evenodd" clip-rule="evenodd" d="M19.5883 35.6471C19.5883 35.4522 19.7732 35.2942 20.0013 35.2942H28.3516C28.5798 35.2942 28.7647 35.4522 28.7647 35.6471C28.7647 35.8421 28.5798 36.0001 28.3516 36.0001H20.0013C19.7732 36.0001 19.5883 35.8421 19.5883 35.6471Z" fill="black"/>
</svg>

<svg width="48" height="48" fill="none" xmlns="http://www.w3.org/2000/svg"><path d="M21.706 35.294l.269-2.823h5.11l.268 2.823h-5.647zm-12-5.647h28.941v2.824H9.706v-2.824z" fill="#A62E41"/><path fill-rule="evenodd" clip-rule="evenodd" d="M10.188 12.822a.371.371 0 00-.37.372v16.303h28.717V13.194a.371.371 0 00-.37-.372H10.188zm0-.822h27.977a1.19 1.19 0 011.188 1.194v18.789a1.19 1.19 0 01-1.188 1.193H15.316a.41.41 0 010-.822h22.849a.37.37 0 00.37-.371v-1.664H9.818v1.664c0 .205.166.372.37.372h3.06a.41.41 0 01.41.41.41.41 0 01-.41.411h-3.06A1.191 1.191 0 019 31.983v-18.79A1.192 1.192 0 0110.188 12z" fill="#000"/><path fill-rule="evenodd" clip-rule="evenodd" d="M21.306 32.47h6.447l.105 1.21c.017.204-.154.382-.384.398-.23.015-.43-.137-.448-.341l-.045-.525h-4.903l-.177 2.047h5.257l-.03-.345c-.017-.204.154-.382.384-.398.23-.015.43.137.448.341L28.059 36H21l.306-3.53z" fill="#000"/><path fill-rule="evenodd" clip-rule="evenodd" d="M19.588 35.647c0-.195.185-.353.413-.353h8.35c.229 0 .414.158.414.353 0 .195-.185.353-.413.353h-8.35c-.229 0-.414-.158-.414-.353z" fill="#000"/></svg>
